media/software/v_process.drawio.svg

<?xml version="1.0" encoding="UTF-8" standalone="no"?>
<svg
   version="1.1"
   viewBox="-0.5 -0.5 621 278"
   id="svg53"
   sodipodi:docname="v_process.drawio.svg"
   inkscape:version="1.4.2 (ebf0e940d0, 2025-05-08)"
   xmlns:inkscape="http://www.inkscape.org/namespaces/inkscape"
   xmlns:sodipodi="http://sodipodi.sourceforge.net/DTD/sodipodi-0.dtd"
   xmlns="http://www.w3.org/2000/svg"
   xmlns:svg="http://www.w3.org/2000/svg">
  <sodipodi:namedview
     id="namedview53"
     pagecolor="#ffffff"
     bordercolor="#000000"
     borderopacity="0.25"
     inkscape:showpageshadow="2"
     inkscape:pageopacity="0.0"
     inkscape:pagecheckerboard="0"
     inkscape:deskcolor="#d1d1d1"
     inkscape:zoom="3.1690821"
     inkscape:cx="114.70198"
     inkscape:cy="53.643293"
     inkscape:window-width="3818"
     inkscape:window-height="2074"
     inkscape:window-x="0"
     inkscape:window-y="0"
     inkscape:window-maximized="1"
     inkscape:current-layer="svg53" />
  <defs
     id="defs1" />
  <path
     d="m 120,37 h 20 v 33.63"
     fill="none"
     stroke="#000000"
     stroke-miterlimit="10"
     pointer-events="stroke"
     style="stroke:#616161;stroke-opacity:1"
     id="path1" />
  <path
     d="m 140,75.88 -3.5,-7 3.5,1.75 3.5,-1.75 z"
     fill="#000000"
     stroke="#000000"
     stroke-miterlimit="10"
     pointer-events="all"
     style="fill:#616161;stroke:#616161;stroke-opacity:1;fill-opacity:1"
     id="path2" />
  <rect
     x="0"
     y="7"
     width="120"
     height="60"
     fill="#ffffff"
     stroke="#000000"
     pointer-events="all"
     style="fill:none;stroke:#616161;stroke-opacity:1"
     id="rect3" />
  <text
     x="59.5"
     y="40.5"
     fill="light-dark(#000000, #ffffff)"
     font-family="Helvetica"
     font-size="12px"
     text-anchor="middle"
     id="text4"
     style="fill:#616161;fill-opacity:1">Requirements</text>
  <path
     d="m 200,107 h 20 v 33.63"
     fill="none"
     stroke="#000000"
     stroke-miterlimit="10"
     pointer-events="stroke"
     style="stroke:#616161;stroke-opacity:1"
     id="path7" />
  <path
     d="m 220,145.88 -3.5,-7 3.5,1.75 3.5,-1.75 z"
     fill="#000000"
     stroke="#000000"
     stroke-miterlimit="10"
     pointer-events="all"
     style="fill:#616161;stroke:#616161;stroke-opacity:1;fill-opacity:1"
     id="path8" />
  <rect
     x="80"
     y="77"
     width="120"
     height="60"
     fill="#ffffff"
     stroke="#000000"
     pointer-events="all"
     style="fill:none;stroke:#616161;stroke-opacity:1"
     id="rect9" />
  <text
     x="139.5"
     y="110.5"
     fill="light-dark(#000000, #ffffff)"
     font-family="Helvetica"
     font-size="12px"
     text-anchor="middle"
     id="text10"
     style="fill:#616161;fill-opacity:1">Design</text>
  <path
     d="m 280,177 h 30 v 33.63"
     fill="none"
     stroke="#000000"
     stroke-miterlimit="10"
     pointer-events="stroke"
     style="stroke:#616161;stroke-opacity:1"
     id="path13" />
  <path
     d="m 310,215.88 -3.5,-7 3.5,1.75 3.5,-1.75 z"
     fill="#000000"
     stroke="#000000"
     stroke-miterlimit="10"
     pointer-events="all"
     style="fill:#616161;stroke:#616161;stroke-opacity:1;fill-opacity:1"
     id="path14" />
  <rect
     x="160"
     y="147"
     width="120"
     height="60"
     fill="#ffffff"
     stroke="#000000"
     pointer-events="all"
     style="fill:none;stroke:#616161;stroke-opacity:1"
     id="rect15" />
  <text
     x="219.5"
     y="180.5"
     fill="light-dark(#000000, #ffffff)"
     font-family="Helvetica"
     font-size="12px"
     text-anchor="middle"
     id="text16"
     style="fill:#616161;fill-opacity:1">Unit Design</text>
  <path
     d="M 376.37,247 H 400 v -33.63"
     fill="none"
     stroke="#000000"
     stroke-miterlimit="10"
     pointer-events="stroke"
     style="stroke:#616161;stroke-opacity:1"
     id="path19" />
  <path
     d="m 371.12,247 7,-3.5 -1.75,3.5 1.75,3.5 z"
     fill="#000000"
     stroke="#000000"
     stroke-miterlimit="10"
     pointer-events="all"
     style="fill:#616161;stroke:#616161;stroke-opacity:1;fill-opacity:1"
     id="path20" />
  <path
     d="m 400,208.12 3.5,7 -3.5,-1.75 -3.5,1.75 z"
     fill="#000000"
     stroke="#000000"
     stroke-miterlimit="10"
     pointer-events="all"
     style="fill:#616161;stroke:#616161;stroke-opacity:1;fill-opacity:1"
     id="path21" />
  <rect
     x="250"
     y="217"
     width="120"
     height="60"
     fill="#ffffff"
     stroke="#000000"
     pointer-events="all"
     style="fill:none;stroke:#616161;stroke-opacity:1"
     id="rect22" />
  <text
     x="309.5"
     y="250.5"
     fill="light-dark(#000000, #ffffff)"
     font-family="Helvetica"
     font-size="12px"
     text-anchor="middle"
     id="text23"
     style="fill:#616161;fill-opacity:1">Implementation</text>
  <path
     d="m 460,177 h 20 v -33.63"
     fill="none"
     stroke="#000000"
     stroke-miterlimit="10"
     pointer-events="stroke"
     style="stroke:#616161;stroke-opacity:1"
     id="path26" />
  <path
     d="m 480,138.12 3.5,7 -3.5,-1.75 -3.5,1.75 z"
     fill="#000000"
     stroke="#000000"
     stroke-miterlimit="10"
     pointer-events="all"
     style="fill:#616161;stroke:#616161;stroke-opacity:1;fill-opacity:1"
     id="path27" />
  <path
     d="M 340,177 286.18,163.54"
     fill="none"
     stroke="#000000"
     stroke-miterlimit="10"
     pointer-events="stroke"
     style="stroke:#616161;stroke-opacity:1"
     id="path28" />
  <path
     d="m 281.08,162.27 7.64,-1.7 -2.54,2.97 0.85,3.82 z"
     fill="#000000"
     stroke="#000000"
     stroke-miterlimit="10"
     pointer-events="all"
     style="fill:#616161;stroke:#616161;stroke-opacity:1;fill-opacity:1"
     id="path29" />
  <rect
     x="340"
     y="147"
     width="120"
     height="60"
     fill="#ffffff"
     stroke="#000000"
     pointer-events="all"
     style="fill:none;stroke:#616161;stroke-opacity:1"
     id="rect30" />
  <text
     x="399.5"
     y="180.5"
     fill="light-dark(#000000, #ffffff)"
     font-family="Helvetica"
     font-size="12px"
     text-anchor="middle"
     id="text31"
     style="fill:#616161;fill-opacity:1">Unit Testing</text>
  <path
     d="m 540,107 h 20 V 73.37"
     fill="none"
     stroke="#000000"
     stroke-miterlimit="10"
     pointer-events="stroke"
     style="stroke:#616161;stroke-opacity:1"
     id="path34" />
  <path
     d="m 560,68.12 3.5,7 -3.5,-1.75 -3.5,1.75 z"
     fill="#000000"
     stroke="#000000"
     stroke-miterlimit="10"
     pointer-events="all"
     style="fill:#616161;stroke:#616161;stroke-opacity:1;fill-opacity:1"
     id="path35" />
  <path
     d="M 420,107 206.35,92.43"
     fill="none"
     stroke="#000000"
     stroke-miterlimit="10"
     pointer-events="stroke"
     style="stroke:#616161;stroke-opacity:1"
     id="path36" />
  <path
     d="m 201.12,92.08 7.22,-3.02 -1.99,3.37 1.51,3.61 z"
     fill="#000000"
     stroke="#000000"
     stroke-miterlimit="10"
     pointer-events="all"
     style="fill:#616161;stroke:#616161;stroke-opacity:1;fill-opacity:1"
     id="path37" />
  <path
     d="M 420,77 126.26,23.15"
     fill="none"
     stroke="#000000"
     stroke-miterlimit="10"
     pointer-events="stroke"
     style="stroke:#616161;stroke-opacity:1"
     id="path38" />
  <path
     d="m 121.1,22.2 7.52,-2.18 -2.36,3.13 1.09,3.76 z"
     fill="#000000"
     stroke="#000000"
     stroke-miterlimit="10"
     pointer-events="all"
     style="fill:#616161;stroke:#616161;stroke-opacity:1;fill-opacity:1"
     id="path39" />
  <rect
     x="420"
     y="77"
     width="120"
     height="60"
     fill="#ffffff"
     stroke="#000000"
     pointer-events="all"
     style="fill:none;stroke:#616161;stroke-opacity:1"
     id="rect40" />
  <text
     x="479.5"
     y="110.5"
     fill="light-dark(#000000, #ffffff)"
     font-family="Helvetica"
     font-size="12px"
     text-anchor="middle"
     id="text41"
     style="fill:#616161;fill-opacity:1">Integration Testing</text>
  <path
     d="M 500,37 126.35,7.5"
     fill="none"
     stroke="#000000"
     stroke-miterlimit="10"
     pointer-events="stroke"
     style="stroke:#616161;stroke-opacity:1"
     id="path44" />
  <path
     d="m 121.11,7.09 7.26,-2.94 -2.02,3.35 1.47,3.63 z"
     fill="#000000"
     stroke="#000000"
     stroke-miterlimit="10"
     pointer-events="all"
     style="fill:#616161;stroke:#616161;stroke-opacity:1;fill-opacity:1"
     id="path45" />
  <rect
     x="500"
     y="7"
     width="120"
     height="60"
     fill="#ffffff"
     stroke="#000000"
     pointer-events="all"
     style="fill:none;stroke:#616161;stroke-opacity:1"
     id="rect46" />
  <text
     x="559.5"
     y="40.5"
     fill="light-dark(#000000, #ffffff)"
     font-family="Helvetica"
     font-size="12px"
     text-anchor="middle"
     id="text47"
     style="fill:#616161;fill-opacity:1">Acceptance Testing </text>
</svg>

<!DOCTYPE svg PUBLIC "-//W3C//DTD SVG 1.1//EN" "http://www.w3.org/Graphics/SVG/1.1/DTD/svg11.dtd">
<svg xmlns="http://www.w3.org/2000/svg" xmlns:xlink="http://www.w3.org/1999/xlink" style="background: #ffffff; background-color: #ffffff; color-scheme: light;" version="1.1" viewBox="-0.5 -0.5 621 278">
  <defs/>
  <rect fill="#ffffff" width="100%" height="100%" x="0" y="0" style="fill: rgb(255, 255, 255);"/>
  <g>
    <g data-cell-id="0">
      <g data-cell-id="1">
        <g data-cell-id="SoPE0JhpsXeZrso2QGta-9">
          <g>
            <path d="M 120 37 L 140 37 L 140 70.63" fill="none" stroke="#000000" stroke-miterlimit="10" pointer-events="stroke" style="stroke: rgb(0, 0, 0);"/>
            <path d="M 140 75.88 L 136.5 68.88 L 140 70.63 L 143.5 68.88 Z" fill="#000000" stroke="#000000" stroke-miterlimit="10" pointer-events="all" style="fill: rgb(0, 0, 0); stroke: rgb(0, 0, 0);"/>
          </g>
        </g>
        <g data-cell-id="SoPE0JhpsXeZrso2QGta-1">
          <g>
            <rect x="0" y="7" width="120" height="60" fill="#ffffff" stroke="#000000" pointer-events="all" style="fill: rgb(255, 255, 255); stroke: rgb(0, 0, 0);"/>
          </g>
          <g>
            <g transform="translate(-0.5 -0.5)">
              <switch>
                <foreignObject style="overflow: visible; text-align: left;" pointer-events="none" width="100%" height="100%" requiredFeatures="http://www.w3.org/TR/SVG11/feature#Extensibility">
                  <div xmlns="http://www.w3.org/1999/xhtml" style="display: flex; align-items: unsafe center; justify-content: unsafe center; width: 118px; height: 1px; padding-top: 37px; margin-left: 1px;">
                    <div style="box-sizing: border-box; font-size: 0; text-align: center; color: #000000; ">
                      <div style="display: inline-block; font-size: 12px; font-family: &quot;Helvetica&quot;; color: #000000; line-height: 1.2; pointer-events: all; white-space: normal; word-wrap: normal; ">Requirements</div>
                    </div>
                  </div>
                </foreignObject>
                <text x="60" y="41" fill="light-dark(#000000, #ffffff)" font-family="&quot;Helvetica&quot;" font-size="12px" text-anchor="middle">Requirements</text>
              </switch>
            </g>
          </g>
        </g>
        <g data-cell-id="SoPE0JhpsXeZrso2QGta-10">
          <g>
            <path d="M 200 107 L 220 107 L 220 140.63" fill="none" stroke="#000000" stroke-miterlimit="10" pointer-events="stroke" style="stroke: rgb(0, 0, 0);"/>
            <path d="M 220 145.88 L 216.5 138.88 L 220 140.63 L 223.5 138.88 Z" fill="#000000" stroke="#000000" stroke-miterlimit="10" pointer-events="all" style="fill: rgb(0, 0, 0); stroke: rgb(0, 0, 0);"/>
          </g>
        </g>
        <g data-cell-id="SoPE0JhpsXeZrso2QGta-2">
          <g>
            <rect x="80" y="77" width="120" height="60" fill="#ffffff" stroke="#000000" pointer-events="all" style="fill: rgb(255, 255, 255); stroke: rgb(0, 0, 0);"/>
          </g>
          <g>
            <g transform="translate(-0.5 -0.5)">
              <switch>
                <foreignObject style="overflow: visible; text-align: left;" pointer-events="none" width="100%" height="100%" requiredFeatures="http://www.w3.org/TR/SVG11/feature#Extensibility">
                  <div xmlns="http://www.w3.org/1999/xhtml" style="display: flex; align-items: unsafe center; justify-content: unsafe center; width: 118px; height: 1px; padding-top: 107px; margin-left: 81px;">
                    <div style="box-sizing: border-box; font-size: 0; text-align: center; color: #000000; ">
                      <div style="display: inline-block; font-size: 12px; font-family: &quot;Helvetica&quot;; color: #000000; line-height: 1.2; pointer-events: all; white-space: normal; word-wrap: normal; ">Design</div>
                    </div>
                  </div>
                </foreignObject>
                <text x="140" y="111" fill="light-dark(#000000, #ffffff)" font-family="&quot;Helvetica&quot;" font-size="12px" text-anchor="middle">Design</text>
              </switch>
            </g>
          </g>
        </g>
        <g data-cell-id="SoPE0JhpsXeZrso2QGta-12">
          <g>
            <path d="M 280 177 L 310 177 L 310 210.63" fill="none" stroke="#000000" stroke-miterlimit="10" pointer-events="stroke" style="stroke: rgb(0, 0, 0);"/>
            <path d="M 310 215.88 L 306.5 208.88 L 310 210.63 L 313.5 208.88 Z" fill="#000000" stroke="#000000" stroke-miterlimit="10" pointer-events="all" style="fill: rgb(0, 0, 0); stroke: rgb(0, 0, 0);"/>
          </g>
        </g>
        <g data-cell-id="SoPE0JhpsXeZrso2QGta-6">
          <g>
            <rect x="160" y="147" width="120" height="60" fill="#ffffff" stroke="#000000" pointer-events="all" style="fill: rgb(255, 255, 255); stroke: rgb(0, 0, 0);"/>
          </g>
          <g>
            <g transform="translate(-0.5 -0.5)">
              <switch>
                <foreignObject style="overflow: visible; text-align: left;" pointer-events="none" width="100%" height="100%" requiredFeatures="http://www.w3.org/TR/SVG11/feature#Extensibility">
                  <div xmlns="http://www.w3.org/1999/xhtml" style="display: flex; align-items: unsafe center; justify-content: unsafe center; width: 118px; height: 1px; padding-top: 177px; margin-left: 161px;">
                    <div style="box-sizing: border-box; font-size: 0; text-align: center; color: #000000; ">
                      <div style="display: inline-block; font-size: 12px; font-family: &quot;Helvetica&quot;; color: #000000; line-height: 1.2; pointer-events: all; white-space: normal; word-wrap: normal; ">Unit Design</div>
                    </div>
                  </div>
                </foreignObject>
                <text x="220" y="181" fill="light-dark(#000000, #ffffff)" font-family="&quot;Helvetica&quot;" font-size="12px" text-anchor="middle">Unit Design</text>
              </switch>
            </g>
          </g>
        </g>
        <g data-cell-id="SoPE0JhpsXeZrso2QGta-16">
          <g>
            <path d="M 376.37 247 L 400 247 L 400 213.37" fill="none" stroke="#000000" stroke-miterlimit="10" pointer-events="stroke" style="stroke: rgb(0, 0, 0);"/>
            <path d="M 371.12 247 L 378.12 243.5 L 376.37 247 L 378.12 250.5 Z" fill="#000000" stroke="#000000" stroke-miterlimit="10" pointer-events="all" style="fill: rgb(0, 0, 0); stroke: rgb(0, 0, 0);"/>
            <path d="M 400 208.12 L 403.5 215.12 L 400 213.37 L 396.5 215.12 Z" fill="#000000" stroke="#000000" stroke-miterlimit="10" pointer-events="all" style="fill: rgb(0, 0, 0); stroke: rgb(0, 0, 0);"/>
          </g>
        </g>
        <g data-cell-id="SoPE0JhpsXeZrso2QGta-11">
          <g>
            <rect x="250" y="217" width="120" height="60" fill="#ffffff" stroke="#000000" pointer-events="all" style="fill: rgb(255, 255, 255); stroke: rgb(0, 0, 0);"/>
          </g>
          <g>
            <g transform="translate(-0.5 -0.5)">
              <switch>
                <foreignObject style="overflow: visible; text-align: left;" pointer-events="none" width="100%" height="100%" requiredFeatures="http://www.w3.org/TR/SVG11/feature#Extensibility">
                  <div xmlns="http://www.w3.org/1999/xhtml" style="display: flex; align-items: unsafe center; justify-content: unsafe center; width: 118px; height: 1px; padding-top: 247px; margin-left: 251px;">
                    <div style="box-sizing: border-box; font-size: 0; text-align: center; color: #000000; ">
                      <div style="display: inline-block; font-size: 12px; font-family: &quot;Helvetica&quot;; color: #000000; line-height: 1.2; pointer-events: all; white-space: normal; word-wrap: normal; ">Implementation</div>
                    </div>
                  </div>
                </foreignObject>
                <text x="310" y="251" fill="light-dark(#000000, #ffffff)" font-family="&quot;Helvetica&quot;" font-size="12px" text-anchor="middle">Implementation</text>
              </switch>
            </g>
          </g>
        </g>
        <g data-cell-id="SoPE0JhpsXeZrso2QGta-17">
          <g>
            <path d="M 460 177 L 480 177 L 480 143.37" fill="none" stroke="#000000" stroke-miterlimit="10" pointer-events="stroke" style="stroke: rgb(0, 0, 0);"/>
            <path d="M 480 138.12 L 483.5 145.12 L 480 143.37 L 476.5 145.12 Z" fill="#000000" stroke="#000000" stroke-miterlimit="10" pointer-events="all" style="fill: rgb(0, 0, 0); stroke: rgb(0, 0, 0);"/>
          </g>
        </g>
        <g data-cell-id="SoPE0JhpsXeZrso2QGta-19">
          <g>
            <path d="M 340 177 L 286.18 163.54" fill="none" stroke="#000000" stroke-miterlimit="10" pointer-events="stroke" style="stroke: rgb(0, 0, 0);"/>
            <path d="M 281.08 162.27 L 288.72 160.57 L 286.18 163.54 L 287.03 167.36 Z" fill="#000000" stroke="#000000" stroke-miterlimit="10" pointer-events="all" style="fill: rgb(0, 0, 0); stroke: rgb(0, 0, 0);"/>
          </g>
        </g>
        <g data-cell-id="SoPE0JhpsXeZrso2QGta-13">
          <g>
            <rect x="340" y="147" width="120" height="60" fill="#ffffff" stroke="#000000" pointer-events="all" style="fill: rgb(255, 255, 255); stroke: rgb(0, 0, 0);"/>
          </g>
          <g>
            <g transform="translate(-0.5 -0.5)">
              <switch>
                <foreignObject style="overflow: visible; text-align: left;" pointer-events="none" width="100%" height="100%" requiredFeatures="http://www.w3.org/TR/SVG11/feature#Extensibility">
                  <div xmlns="http://www.w3.org/1999/xhtml" style="display: flex; align-items: unsafe center; justify-content: unsafe center; width: 118px; height: 1px; padding-top: 177px; margin-left: 341px;">
                    <div style="box-sizing: border-box; font-size: 0; text-align: center; color: #000000; ">
                      <div style="display: inline-block; font-size: 12px; font-family: &quot;Helvetica&quot;; color: #000000; line-height: 1.2; pointer-events: all; white-space: normal; word-wrap: normal; ">Unit Testing</div>
                    </div>
                  </div>
                </foreignObject>
                <text x="400" y="181" fill="light-dark(#000000, #ffffff)" font-family="&quot;Helvetica&quot;" font-size="12px" text-anchor="middle">Unit Testing</text>
              </switch>
            </g>
          </g>
        </g>
        <g data-cell-id="SoPE0JhpsXeZrso2QGta-18">
          <g>
            <path d="M 540 107 L 560 107 L 560 73.37" fill="none" stroke="#000000" stroke-miterlimit="10" pointer-events="stroke" style="stroke: rgb(0, 0, 0);"/>
            <path d="M 560 68.12 L 563.5 75.12 L 560 73.37 L 556.5 75.12 Z" fill="#000000" stroke="#000000" stroke-miterlimit="10" pointer-events="all" style="fill: rgb(0, 0, 0); stroke: rgb(0, 0, 0);"/>
          </g>
        </g>
        <g data-cell-id="SoPE0JhpsXeZrso2QGta-20">
          <g>
            <path d="M 420 107 L 206.35 92.43" fill="none" stroke="#000000" stroke-miterlimit="10" pointer-events="stroke" style="stroke: rgb(0, 0, 0);"/>
            <path d="M 201.12 92.08 L 208.34 89.06 L 206.35 92.43 L 207.86 96.04 Z" fill="#000000" stroke="#000000" stroke-miterlimit="10" pointer-events="all" style="fill: rgb(0, 0, 0); stroke: rgb(0, 0, 0);"/>
          </g>
        </g>
        <g data-cell-id="SoPE0JhpsXeZrso2QGta-21">
          <g>
            <path d="M 420 77 L 126.26 23.15" fill="none" stroke="#000000" stroke-miterlimit="10" pointer-events="stroke" style="stroke: rgb(0, 0, 0);"/>
            <path d="M 121.1 22.2 L 128.62 20.02 L 126.26 23.15 L 127.35 26.91 Z" fill="#000000" stroke="#000000" stroke-miterlimit="10" pointer-events="all" style="fill: rgb(0, 0, 0); stroke: rgb(0, 0, 0);"/>
          </g>
        </g>
        <g data-cell-id="SoPE0JhpsXeZrso2QGta-14">
          <g>
            <rect x="420" y="77" width="120" height="60" fill="#ffffff" stroke="#000000" pointer-events="all" style="fill: rgb(255, 255, 255); stroke: rgb(0, 0, 0);"/>
          </g>
          <g>
            <g transform="translate(-0.5 -0.5)">
              <switch>
                <foreignObject style="overflow: visible; text-align: left;" pointer-events="none" width="100%" height="100%" requiredFeatures="http://www.w3.org/TR/SVG11/feature#Extensibility">
                  <div xmlns="http://www.w3.org/1999/xhtml" style="display: flex; align-items: unsafe center; justify-content: unsafe center; width: 118px; height: 1px; padding-top: 107px; margin-left: 421px;">
                    <div style="box-sizing: border-box; font-size: 0; text-align: center; color: #000000; ">
                      <div style="display: inline-block; font-size: 12px; font-family: &quot;Helvetica&quot;; color: #000000; line-height: 1.2; pointer-events: all; white-space: normal; word-wrap: normal; ">Integration Testing</div>
                    </div>
                  </div>
                </foreignObject>
                <text x="480" y="111" fill="light-dark(#000000, #ffffff)" font-family="&quot;Helvetica&quot;" font-size="12px" text-anchor="middle">Integration Testing</text>
              </switch>
            </g>
          </g>
        </g>
        <g data-cell-id="SoPE0JhpsXeZrso2QGta-22">
          <g>
            <path d="M 500 37 L 126.35 7.5" fill="none" stroke="#000000" stroke-miterlimit="10" pointer-events="stroke" style="stroke: rgb(0, 0, 0);"/>
            <path d="M 121.11 7.09 L 128.37 4.15 L 126.35 7.5 L 127.82 11.13 Z" fill="#000000" stroke="#000000" stroke-miterlimit="10" pointer-events="all" style="fill: rgb(0, 0, 0); stroke: rgb(0, 0, 0);"/>
          </g>
        </g>
        <g data-cell-id="SoPE0JhpsXeZrso2QGta-15">
          <g>
            <rect x="500" y="7" width="120" height="60" fill="#ffffff" stroke="#000000" pointer-events="all" style="fill: rgb(255, 255, 255); stroke: rgb(0, 0, 0);"/>
          </g>
          <g>
            <g transform="translate(-0.5 -0.5)">
              <switch>
                <foreignObject style="overflow: visible; text-align: left;" pointer-events="none" width="100%" height="100%" requiredFeatures="http://www.w3.org/TR/SVG11/feature#Extensibility">
                  <div xmlns="http://www.w3.org/1999/xhtml" style="display: flex; align-items: unsafe center; justify-content: unsafe center; width: 118px; height: 1px; padding-top: 37px; margin-left: 501px;">
                    <div style="box-sizing: border-box; font-size: 0; text-align: center; color: #000000; ">
                      <div style="display: inline-block; font-size: 12px; font-family: &quot;Helvetica&quot;; color: #000000; line-height: 1.2; pointer-events: all; white-space: normal; word-wrap: normal; ">Acceptance Testing&#160;</div>
                    </div>
                  </div>
                </foreignObject>
                <text x="560" y="41" fill="light-dark(#000000, #ffffff)" font-family="&quot;Helvetica&quot;" font-size="12px" text-anchor="middle">Acceptance Testing&#160;</text>
              </switch>
            </g>
          </g>
        </g>
      </g>
    </g>
  </g>
</svg>
